svg/building/store_2_fill.svg

<?xml version="1.0" encoding="UTF-8"?>
<svg width="24px" height="24px" viewBox="0 0 24 24" version="1.1" xmlns="http://www.w3.org/2000/svg" xmlns:xlink="http://www.w3.org/1999/xlink">
    <title>store_2_fill</title>
    <g id="页面-1" stroke="none" stroke-width="1" fill="none" fill-rule="evenodd">
        <g id="Building" transform="translate(-432.000000, -136.000000)">
            <g id="store_2_fill" transform="translate(432.000000, 136.000000)">
                 <path d="M24,0 L24,24 L0,24 L0,0 L24,0 Z M12.5934901,23.257841 L12.5819402,23.2595131 L12.5108777,23.2950439 L12.4918791,23.2987469 L12.4918791,23.2987469 L12.4767152,23.2950439 L12.4056548,23.2595131 C12.3958229,23.2563662 12.3870493,23.2590235 12.3821421,23.2649074 L12.3780323,23.275831 L12.360941,23.7031097 L12.3658947,23.7234994 L12.3769048,23.7357139 L12.4804777,23.8096931 L12.4953491,23.8136134 L12.4953491,23.8136134 L12.5071152,23.8096931 L12.6106902,23.7357139 L12.6232938,23.7196733 L12.6232938,23.7196733 L12.6266527,23.7031097 L12.609561,23.275831 C12.6075724,23.2657013 12.6010112,23.2592993 12.5934901,23.257841 L12.5934901,23.257841 Z M12.8583906,23.1452862 L12.8445485,23.1473072 L12.6598443,23.2396597 L12.6498822,23.2499052 L12.6498822,23.2499052 L12.6471943,23.2611114 L12.6650943,23.6906389 L12.6699349,23.7034178 L12.6699349,23.7034178 L12.678386,23.7104931 L12.8793402,23.8032389 C12.8914285,23.8068999 12.9022333,23.8029875 12.9078286,23.7952264 L12.9118235,23.7811639 L12.8776777,23.1665331 C12.8752882,23.1545897 12.8674102,23.1470016 12.8583906,23.1452862 L12.8583906,23.1452862 Z M12.1430473,23.1473072 C12.1332178,23.1423925 12.1221763,23.1452606 12.1156365,23.1525954 L12.1099173,23.1665331 L12.0757714,23.7811639 C12.0751323,23.7926639 12.0828099,23.8018602 12.0926481,23.8045676 L12.108256,23.8032389 L12.3092106,23.7104931 L12.3186497,23.7024347 L12.3186497,23.7024347 L12.3225043,23.6906389 L12.340401,23.2611114 L12.337245,23.2485176 L12.337245,23.2485176 L12.3277531,23.2396597 L12.1430473,23.1473072 Z" id="MingCute" fill-rule="nonzero"></path>
                <path d="M18,2 C19.6569,2 21,3.34315 21,5 L21,18 C21,19.6569 19.6569,21 18,21 L15,21 L15,15 C15,13.3431 13.6569,12 12,12 L11,12 C9.34315,12 8,13.3431 8,15 L8,21 L5,21 C3.34315,21 2,19.6569 2,18 L2,5 C2,3.34315 3.34315,2 5,2 L18,2 Z M12,14 C12.51285,14 12.9355092,14.386027 12.9932725,14.8833761 L13,15 L13,21 L10,21 L10,15 C10,14.48715 10.386027,14.0644908 10.8833761,14.0067275 L11,14 L12,14 Z M18,4 L5,4 C4.48716857,4 4.06449347,4.38604429 4.0067278,4.88337975 L4,5 L4,6 C4,7.10457 4.89543,8 6,8 C6.93500944,8 7.72170123,7.35750127 7.9397999,6.48989819 L7.9723,6.33454 C8.04929385,5.87566 8.42740107,5.5425542 8.87030959,5.50364951 L9,5.5 C9.51283143,5.5 9.93550653,5.88604429 9.9932722,6.38337975 L10,6.5 C10,7.32843 10.6716,8 11.5,8 C12.2796706,8 12.9204457,7.40511446 12.9931332,6.64446046 L13,6.5 C13,5.98716857 13.386027,5.56449347 13.8833761,5.5067278 L14.0177,5.50015 C14.4698231,5.48885154 14.8767864,5.78578976 15.0023172,6.22253777 L15.0277,6.33454 C15.1863,7.27969 16.01,8 17,8 C18.0543909,8 18.9181678,7.18412267 18.9945144,6.14926241 L19,6 L19,5 C19,4.48716857 18.613973,4.06449347 18.1166239,4.0067278 L18,4 Z" id="形状" fill="#09244B"></path>
            </g>
        </g>
    </g>
</svg>

<svg xmlns="http://www.w3.org/2000/svg" width="24" height="24"><g fill="none" fill-rule="evenodd"><path d="M24 0v24H0V0h24ZM12.593 23.258l-.011.002-.071.035-.02.004-.014-.004-.071-.035c-.01-.004-.019-.001-.024.005l-.004.01-.017.428.005.02.01.013.104.074.015.004.012-.004.104-.074.012-.016.004-.017-.017-.427c-.002-.01-.009-.017-.017-.018Zm.265-.113-.013.002-.185.093-.01.01-.003.011.018.43.005.012.008.007.201.093c.012.004.023 0 .029-.008l.004-.014-.034-.614c-.003-.012-.01-.02-.02-.022Zm-.715.002a.023.023 0 0 0-.027.006l-.006.014-.034.614c0 .012.007.02.017.024l.015-.002.201-.093.01-.008.004-.011.017-.43-.003-.012-.01-.01-.184-.092Z"/><path fill="#09244B" d="M18 2a3 3 0 0 1 3 3v13a3 3 0 0 1-3 3h-3v-6a3 3 0 0 0-3-3h-1a3 3 0 0 0-3 3v6H5a3 3 0 0 1-3-3V5a3 3 0 0 1 3-3h13Zm-6 12a1 1 0 0 1 .993.883L13 15v6h-3v-6a1 1 0 0 1 .883-.993L11 14h1Zm6-10H5a1 1 0 0 0-.993.883L4 5v1a2 2 0 0 0 3.94.49l.032-.155a1 1 0 0 1 .898-.831L9 5.5a1 1 0 0 1 .993.883L10 6.5a1.5 1.5 0 0 0 2.993.144L13 6.5a1 1 0 0 1 .883-.993l.135-.007a1 1 0 0 1 .984.723l.026.112a2 2 0 0 0 3.967-.186L19 6V5a1 1 0 0 0-.883-.993L18 4Z"/></g></svg>
